X:1
T:Title
%%score { ( 1 3 5 ) | ( 2 4 6 ) }
L:1/8
M:4/4
K:Ab
V:1 treble nm="Grand Piano"
V:3 treble 
V:5 treble 
V:2 bass 
V:4 bass 
V:6 bass 
V:1
 z4 z[Q:1/4=94] EFE | A6[K:bass][K:treble] z2 |[M:5/8] FA E2 z |[M:3/8] EFE |[M:4/4] A6 z2 | %5
[M:5/8] GA B2 z |[M:3/8] EFE |[M:4/4] A6[K:bass][K:treble] z2 | [DF][FA] [Fd]4 d2 | c4 B4 | %10
[M:5/8] [A,CA]- [A,CA]3 z |[M:3/8] AGA |[M:4/4] B6 z2 | [CA][DB] [Ec]4 d2 | eeef ec[=DAc][DAB] | %15
[M:7/8] [DGB]-[DGB]-[DGB]- [DGB]3 z |[M:3/8] EFE |[M:4/4] A6[K:bass][K:treble] z2 | %18
 [DF][FA] [Fd]4 d2 | c4 B4 |[M:13/8] [CA]- [CA]3 z z z z z z z z2 |] %21
V:2
 z4 z CCC | C6 z2 |[M:5/8] [D,A,D][F,A,D] [A,C]2 z |[M:3/8] CCC |[M:4/4] C6 z2 | %5
[M:5/8] [E,B,E][E,F,=D] [E,G,_D]2 z |[M:3/8] CCC |[M:4/4] C6 z2 | %8
 [D,A,][D,A,] [D,A,]4[K:treble] F2 | E4[K:bass] D4 |[M:5/8] A,,- A,,3 z |[M:3/8] CB,C | %12
[M:4/4] D6 z2 | A,A,A,A, A,2[K:treble] [A,B,E]2 | %14
 [A,CA][A,CA][A,CA][A,DA] [A,CA][A,EA][K:bass]F,F, |[M:7/8] E,-E,-E,- E,3 z |[M:3/8] CCC | %17
[M:4/4] C6 z2 | [D,A,][D,A,] [D,A,]4[K:treble] F2 | E4[K:bass] D4 | %20
[M:13/8] [A,,A,]- [A,,A,]3 z z z z z z z z2 |] %21
V:3
 x8 | z[K:bass] E,E,E, E,[K:treble][Ec][EB][EA] |[M:5/8] x5 |[M:3/8] x3 | %4
[M:4/4] z A,A,A, A,c[=DB][DF] |[M:5/8] x5 |[M:3/8] x3 | %7
[M:4/4] z[K:bass] E,E,E, E,[K:treble][Ec][EB][EA] | x8 | z A,A,c z G,G,B |[M:5/8] x5 |[M:3/8] x3 | %12
[M:4/4] z G,G,G, z dcB | x8 | x8 |[M:7/8] x7 |[M:3/8] x3 | %17
[M:4/4] z[K:bass] E,E,E, E,[K:treble][Ec][EB][EA] | x8 | z A,A,c z G,G,B |[M:13/8] x13 |] %21
V:4
 x8 | z A,,A,,A,, A,,[A,,A,][B,,G,][C,A,] |[M:5/8] x5 |[M:3/8] x3 | %4
[M:4/4] z F,F,F, F,[F,A,C][B,,A,][B,,B,] |[M:5/8] x5 |[M:3/8] x3 | %7
[M:4/4] z A,,A,,A,, A,,[A,,A,][B,,G,][C,A,] | x6[K:treble] x2 | z[K:bass] E,E,E z E,E,[E,G,D] | %10
[M:5/8] x5 |[M:3/8] x3 |[M:4/4] z E,E,E, z FED | x6[K:treble] x2 | x6[K:bass] x2 |[M:7/8] x7 | %16
[M:3/8] x3 |[M:4/4] z A,,A,,A,, A,,[A,,A,][B,,G,][C,A,] | x6[K:treble] x2 | %19
 z[K:bass] E,E,E z E,E,[E,G,D] |[M:13/8] x13 |] %21
V:5
 x8 | x[K:bass] x4[K:treble] x3 |[M:5/8] x5 |[M:3/8] x3 |[M:4/4] x8 |[M:5/8] x5 |[M:3/8] x3 | %7
[M:4/4] x[K:bass] x4[K:treble] x3 | x8 | x8 |[M:5/8] x5 |[M:3/8] x3 |[M:4/4] z4 G,2 z2 | x8 | x8 | %15
[M:7/8] x7 |[M:3/8] x3 |[M:4/4] x[K:bass] x4[K:treble] x3 | x8 | x8 |[M:13/8] x13 |] %21
V:6
 x8 | x8 |[M:5/8] x5 |[M:3/8] x3 |[M:4/4] x8 |[M:5/8] x5 |[M:3/8] x3 |[M:4/4] x8 | %8
 x6[K:treble] x2 | x[K:bass] x7 |[M:5/8] x5 |[M:3/8] x3 |[M:4/4] z4 E,2 [E,G,]2 | x6[K:treble] x2 | %14
 x6[K:bass] x2 |[M:7/8] x7 |[M:3/8] x3 |[M:4/4] x8 | x6[K:treble] x2 | x[K:bass] x7 | %20
[M:13/8] x13 |] %21

